_includes/icons/color-city.svg

<svg fill="#666" height="50" viewBox="0 0 48 48" width="50" xmlns="http://www.w3.org/2000/svg"><path d="m20 5h2v6h-2z" fill="#ffa000"/><path d="m24 5h2v7h-2z" fill="#ffa000"/><path d="m28 15h15v28h-15z" fill="#c5cae9"/><path d="m28 15h3v28h-3z" fill="#7986cb"/><path d="m7.149 43h20.851v-31l-23-7v22z" fill="#ffca28"/><g fill="#5c6bc0"><path d="m31 18h3v3h-3z"/><path d="m31 23h3v3h-3z"/><path d="m31 28h3v3h-3z"/><path d="m31 33h3v3h-3z"/><path d="m31 38h3v3h-3z"/><path d="m37 18h3v3h-3z"/><path d="m37 23h3v3h-3z"/><path d="m37 28h3v3h-3z"/><path d="m37 33h3v3h-3z"/><path d="m37 38h3v3h-3z"/></g><path d="m5 35h3v6h-3z" fill="#795548"/><path d="m9 43h-5s1-1 1-2 3-1 3 0 1 2 1 2z" fill="#795548"/><g fill="#fb8c00"><path d="m8 18h17v3h-17z"/><path d="m8 23h10v2.933h-10z"/><path d="m20 23h5v2.933h-5z"/><path d="m8 13h8v3h-8z"/><path d="m8 28h17v3h-17z"/><path d="m8 33h17v3h-17z"/></g><path d="m13 32.129c0-.797-.48-1.462-1.122-1.632-.13-.663-.598-1.171-1.183-1.277.086-.198.138-.418.138-.655 0-.811-.566-1.468-1.264-1.468-.221 0-.426.072-.606.187-.162-.593-.635-1.026-1.199-1.026-.093 0-.183.013-.271.036-.215-.75-.817-1.294-1.535-1.294-.574 0-1.076.347-1.365.869-.085-.018-.171-.03-.26-.03-.721 0-1.314.616-1.422 1.419-.17-.1-.36-.161-.564-.161-.698 0-1.264.657-1.264 1.468 0 .078.01.154.02.228-.621.093-1.103.702-1.103 1.449 0 .811.566 1.468 1.264 1.468.078 0 .154-.011.229-.027-.25.268-.409.649-.409 1.075 0 .078.01.154.02.228-.622.093-1.104.703-1.104 1.449 0 .811.566 1.468 1.264 1.468.067 0 .132-.011.197-.023.08.721.605 1.281 1.248 1.281.454 0 .848-.28 1.071-.697.207.173.46.277.734.277.093 0 .183-.013.271-.036.215.751.817 1.295 1.534 1.295.729 0 1.338-.561 1.544-1.329.142.042.288.071.442.071.539 0 1.017-.28 1.348-.714.261.431.691.714 1.18.714.798 0 1.444-.751 1.444-1.677 0-.517-.206-.974-.523-1.281.704-.115 1.246-.808 1.246-1.655z" fill="#2e7d32"/></svg>

<svg xmlns="http://www.w3.org/2000/svg" viewBox="0 0 48 48" width="50" height="50" fill="#666"><path fill="#ffa000" d="M20 5H22V11H20z"/><path fill="#ffa000" d="M24 5H26V12H24z"/><path fill="#c5cae9" d="M28 15H43V43H28z"/><path fill="#7986cb" d="M28 15H31V43H28z"/><path fill="#ffca28" d="M7.149 43L28 43 28 12 5 5 5 27z"/><path fill="#5c6bc0" d="M31 18H34V21H31z"/><path fill="#5c6bc0" d="M31 23H34V26H31z"/><path fill="#5c6bc0" d="M31 28H34V31H31z"/><path fill="#5c6bc0" d="M31 33H34V36H31z"/><path fill="#5c6bc0" d="M31 38H34V41H31z"/><path fill="#5c6bc0" d="M37 18H40V21H37z"/><path fill="#5c6bc0" d="M37 23H40V26H37z"/><path fill="#5c6bc0" d="M37 28H40V31H37z"/><path fill="#5c6bc0" d="M37 33H40V36H37z"/><path fill="#5c6bc0" d="M37 38H40V41H37z"/><path fill="#795548" d="M5 35H8V41H5z"/><path d="M9,43H4c0,0,1-1,1-2s3-1,3,0S9,43,9,43z" fill="#795548"/><path fill="#fb8c00" d="M8 18H25V21H8z"/><path fill="#fb8c00" d="M8 23H18V25.933H8z"/><path fill="#fb8c00" d="M20 23H25V25.933H20z"/><path fill="#fb8c00" d="M8 13H16V16H8z"/><path fill="#fb8c00" d="M8 28H25V31H8z"/><path fill="#fb8c00" d="M8 33H25V36H8z"/><path d="M13,32.129c0-0.797-0.48-1.462-1.122-1.632c-0.13-0.663-0.598-1.171-1.183-1.277 c0.086-0.198,0.138-0.418,0.138-0.655c0-0.811-0.566-1.468-1.264-1.468c-0.221,0-0.426,0.072-0.606,0.187 c-0.162-0.593-0.635-1.026-1.199-1.026c-0.093,0-0.183,0.013-0.271,0.036C7.278,25.544,6.676,25,5.958,25 c-0.574,0-1.076,0.347-1.365,0.869c-0.085-0.018-0.171-0.03-0.26-0.03c-0.721,0-1.314,0.616-1.422,1.419 c-0.17-0.1-0.36-0.161-0.564-0.161c-0.698,0-1.264,0.657-1.264,1.468c0,0.078,0.01,0.154,0.02,0.228C0.482,28.886,0,29.495,0,30.242 c0,0.811,0.566,1.468,1.264,1.468c0.078,0,0.154-0.011,0.229-0.027c-0.25,0.268-0.409,0.649-0.409,1.075 c0,0.078,0.01,0.154,0.02,0.228C0.482,33.079,0,33.689,0,34.435c0,0.811,0.566,1.468,1.264,1.468c0.067,0,0.132-0.011,0.197-0.023 c0.08,0.721,0.605,1.281,1.248,1.281c0.454,0,0.848-0.28,1.071-0.697c0.207,0.173,0.46,0.277,0.734,0.277 c0.093,0,0.183-0.013,0.271-0.036C5,37.456,5.602,38,6.319,38c0.729,0,1.338-0.561,1.544-1.329c0.142,0.042,0.288,0.071,0.442,0.071 c0.539,0,1.017-0.28,1.348-0.714c0.261,0.431,0.691,0.714,1.18,0.714c0.798,0,1.444-0.751,1.444-1.677 c0-0.517-0.206-0.974-0.523-1.281C12.458,33.669,13,32.976,13,32.129z" fill="#2e7d32"/></svg>
